svgs/solid/arrow-up-right-and-arrow-down-left-from-center.svg

<svg xmlns="http://www.w3.org/2000/svg" viewBox="0 0 512 512"><!-- Font Awesome Pro 6.0.0-alpha2 by @fontawesome - https://fontawesome.com License - https://fontawesome.com/license (Commercial License) --><path d="M177.375 289.375L64 402.75V352C64 334.312 49.688 320 32 320S0 334.312 0 352V480C0 484.164 0.848 488.312 2.465 492.223C5.705 500.055 11.943 506.297 19.777 509.535C23.688 511.152 27.836 512 32 512H160C177.688 512 192 497.688 192 480S177.688 448 160 448H109.25L222.625 334.625C235.125 322.125 235.125 301.875 222.625 289.375S189.875 276.875 177.375 289.375ZM509.537 19.781C506.295 11.941 500.059 5.703 492.217 2.461C488.311 0.848 484.162 0 480 0H352C334.312 0 320 14.312 320 32S334.312 64 352 64H402.75L289.375 177.375C276.875 189.875 276.875 210.125 289.375 222.625C301.868 235.118 322.118 235.132 334.625 222.625L448 109.25V160C448 177.688 462.312 192 480 192S512 177.688 512 160V32C512 27.836 511.152 23.688 509.537 19.781Z"/></svg>

<svg xmlns="http://www.w3.org/2000/svg" viewBox="0 0 512 512"><!--! Font Awesome Pro 6.3.0 by @fontawesome - https://fontawesome.com License - https://fontawesome.com/license (Commercial License) Copyright 2023 Fonticons, Inc. --><path d="M352 0c-17.7 0-32 14.3-32 32s14.3 32 32 32h50.7L297.4 169.4c-12.5 12.5-12.5 32.8 0 45.3s32.8 12.5 45.3 0L448 109.3V160c0 17.7 14.3 32 32 32s32-14.3 32-32V32c0-17.7-14.3-32-32-32H352zM214.6 297.4c-12.5-12.5-32.8-12.5-45.3 0L64 402.7V352c0-17.7-14.3-32-32-32s-32 14.3-32 32V480c0 17.7 14.3 32 32 32H160c17.7 0 32-14.3 32-32s-14.3-32-32-32H109.3L214.6 342.6c12.5-12.5 12.5-32.8 0-45.3z"/></svg>
